X:1
T:Praise Be to Our Infant Savior
T:Praise Be to Our Infant Savior
T:Alfred S. Hartzell
T:Alfred S. Hartzell, 1904
T:Public Domain Courtesy of the Cyber Hymnal™
T:Public Domain Courtesy of the Cyber Hymnal™
C:Alfred S. Hartzell
Z:Public Domain
Z:Courtesy of the Cyber Hymnal™
%%score ( 1 2 ) 3
L:1/8
Q:1/4=95
M:4/4
K:Ab
V:1 treble 
V:2 treble 
V:3 bass 
V:1
"^Unison. Spirited." A2 (3AGF E2 C2 | [CE]2 [B,C=E]2 [A,CF]4 | F2 (3FGA B2 F2 | %3
w: 1.~Sing glad hal- le- lu- jahs|to the Lord;|Burst forth with His praise with|
w: 2.~Hail, bless- èd Re- deem- er,|Thee we praise,|And un- to Thy name our|
w: 3.~Thy man- i- fold mer- cies,|Lord, we sing,|For Thou art our pro- phet,|
 [B,EG]2 [B,=DA]2 [_DEB]4 | [CEc]2 (3cBA [C=Ec]2 [CEG]2 | [CFA]2 (3AGF [=B,FA]4 | %6
w: one ac- cord;|Let joy- ful ho- san- nas|rise un- to His throne;|
w: songs we raise;|Thou on- ly art wor- thy,|Thou on- ly art king;|
w: priest and king;|Come now and reign o’er us,|we’re loy- al and true;|
 [CE]2 (3E=DE [DF]2 [Dc]2 | [_DB]4 [CA]4 | c2 (3cBA G2 C2 | [CF]2 (3(G{g}AG) [CF]4 | %10
w: Praise be to our in- fant|Sav- ior.|He came to re- deem us|on this * * day;|
w: Praise be to our in- fant|Sav- ior.|Low down in a man- ger|Thou wast * * laid;|
w: Praise be to our in- fant|Sav- ior.|All men shall ac- claim Thee|Prince of * * Peace:|
 F2 (3AGF d2 c2 | [FA]2 [FB]2 [=Ec]4 | [CEc]2 (3cBA [C=Ec]2 [CEG]2 | [CFA]2 (3AGF [=B,FA]4 | %14
w: Our du- ti- ful hom- age|we would pay;|Most roy- al Mes- si- ah,|Thee we would ac- claim;|
w: There three east- ern kings their|hom- age paid;|We al- so would wor- ship|pros- trate at Thy feet;|
w: Thy hon- or and praise shall|ne- ver cease;|Ac- cept our de- vo- tion,|our song will e’er be:|
 [CE]2 (3E=DE [DF]2 [Dc]2 | [_DB]4 [CA]4 |] %16
w: Praise be to our in- fant|Sav- ior.|
w: Praise be to our in- fant|Sav- ior.|
w: “Praise be to our in- fant|Sav- ior.”|
V:2
 x8 | x8 | x8 | x8 | x2 [C=E]2 x4 | x2 C2 x4 | x8 | x8 | x8 | x2 [C=E]2 x4 | x8 | x8 | %12
 x2 [C=E]2 x4 | x8 | x8 | x8 |] %16
V:3
 A,2 (3A,G,F, E,2 C,2 | [A,,A,]2 [G,,G,]2 [F,,F,]4 | F,2 (3F,G,A, B,2 F,2 | %3
 [E,,E,]2 [F,,F,]2 [G,,G,]4 | [A,,A,]2 [A,,A,]2 [G,,G,]2 [G,,G,]2 | [F,,F,]2 [F,,F,]2 [=D,,=D,]4 | %6
 [E,A,]2 [C,A,]2 [B,,A,]2 [B,,A,]2 | [E,G,]4 [A,,E,]4 | C2 (3CB,A, G,2 C,2 | %9
 [C,A,]2 [C,B,]2 [F,A,]4 | F,2 (3A,G,F, D2 C2 | [D,A,]2 [D,A,]2 [C,G,]4 | %12
 [A,,A,]2 [A,,A,]2 [G,,G,]2 [G,,G,]2 | [F,,F,]2 [F,,F,]2 [=D,,=D,]4 | %14
 [E,A,]2 [C,A,]2 [B,,A,]2 [B,,A,]2 | [E,G,]4 [A,,E,]4 |] %16

